X:19
M:C
L:1/8
Q:1/4=140
K:C
|: (c'4b2) z2 | (F4 E2) z2 | (de/f/) e>d (cd/e/) d>c |1 (Bc/d/) c>B c>B A2 :|2 (Bc/d/) c>B A2 |!
|:G>F | E>Gc>e g3 E | F>Ac>f a3 A | B>db>a g>fA>B | d>ce>c G>AG>F |!
E>Gc>eg3 E | F>Ac>f a3 A | B>db>a g>fA>B |1 (3cge (3cGE C2 :|2 (3cge (3cGE C2 z|]

